**kern	**kern
*staff2	*staff1
*clefF4	*clefG2
*k[b-e-]	*k[b-e-]
*M4/4	*M4/4
=39	=39
*	*^
1BB-	16B-LL	(4B-
.	16f	.
.	16b-	.
.	16fJJ	.
.	16cLL	4c
.	16f	.
.	16b-	.
.	16fJJ	.
.	16c#LL	4c#
.	16f	.
.	16b-	.
.	16fJJ	.
.	16dLL	4d)
.	16f	.
.	16b-	.
.	16fJJ	.
=40	=40	=40
*^	*	*
(4F	1F	(4a	16aLL
.	.	.	16e-
.	.	.	16f
.	.	.	16e-JJ
4G	.	4b-	16b-LL
.	.	.	16e-
.	.	.	16f
.	.	.	16e-JJ
4G#	.	4b	16bLL
.	.	.	16e-
.	.	.	16f
.	.	.	16e-JJ
4A)	.	4cc)	16ccLL
.	.	.	16e-
.	.	.	16f
.	.	.	16e-JJ
=41	=41	=41	=41
1F	1FF	16cLL	(4c
.	.	16f	.
.	.	16a	.
.	.	16fJJ	.
.	.	16c#LL	4c#
.	.	16f	.
.	.	16a	.
.	.	16fJJ	.
.	.	16dLL	4d
.	.	16f	.
.	.	16a	.
.	.	16fJJ	.
.	.	16e-LL	4e-)
.	.	16f	.
.	.	16a	.
.	.	16fJJ	.
=42	=42	=42	=42
4r	1BB-	(4b-	16b-LL
.	.	.	16d
.	.	.	16f
.	.	.	16dJJ
[4A	.	4cc	16ccLL
.	.	.	16e-
.	.	.	16f
.	.	.	16e-JJ
4A]	.	4cc#	16cc#LL
.	.	.	16e-
.	.	.	16f
.	.	.	16e-JJ
4B-	.	4dd)	16ddLL
.	.	.	16d
.	.	.	16f
.	.	.	16dJJ
=43	=43	=43	=43
1B-	1E-	16gLL	(4g
.	.	16ee-	.
.	.	16gg	.
.	.	16ee-JJ	.
.	.	16a-LL	4a-
.	.	16ee-	.
.	.	16gg	.
.	.	16ee-JJ	.
.	.	16aLL	4a
.	.	16ee-	.
.	.	16gg	.
.	.	16ee-JJ	.
.	.	16b-LL	4b-)
.	.	16ee-	.
.	.	16gg	.
.	.	16ee-JJ	.
=44	=44	=44	=44
1B-	1BB-	(4ff	16ffLL
.	.	.	16b-
.	.	.	16dd
.	.	.	16b-JJ
.	.	4gg	16ggLL
.	.	.	16b-
.	.	.	16dd
.	.	.	16b-JJ
.	.	4aa	16aaLL
.	.	.	16b-
.	.	.	16dd
.	.	.	16b-JJ
.	.	4bb-)	16bb-LL
.	.	.	16b-
.	.	.	16dd
.	.	.	16b-JJ
*v	*v	*	*
*	*v	*v
=45	=45
4AA' 4F'	16ccc'LL
.	16ee-
.	16ff
.	16ee-JJ
4BB-' 4F'	16bb-'LL
.	16dd
.	16ff
.	16ddJJ
4AA' 4F'	16ccc'LL
.	16ee-
.	16ff
.	16ee-JJ
4BB-' 4F'	16bb-'LL
.	16dd
.	16ff
.	16dd-JJ
=46	=46
4FF 4F	16aaLL
.	16ff
.	16cc
.	16aJJ
4r	16fLL
.	16cc
.	16a
.	16fJJ
2r	16cLL
.	16a
.	16f
.	16cJJ
.	16ALL
.	16f
.	16c
.	16AJJ
=	=
*-	*-
